X:12046
T:North Country Frisk
B:Walsh
M:3/2
L:1/8
N:triplets marked for first bar of last part
K:A
c4 Bd c>BA4|c2e2 B2d2 c2 B>A| F2 B2 E2 G2 F2 B2|F,2 D2 A2 c2 B2 A2::\
c2 e2 d2 f2 c2 e2|B2 d2 c2 B>A F2 A2|E2 D2 C2 B,2 A,CB,A,|G,2D2 A2 c2 B2 A2::\
 a2 c2 dcBA E2 B2| A2 D2 B2 D2 ce c>B| A2 G,4 B,2 A,2 G,2::\
aedc BcdB cdef| edcB AcBA FABc| dcBA FGFE DCB,A,| G,2 D2 A2 c2 B2 A2::\
CA3 D2 CA3 D2 CA3 D2|F2 B4 c2 dcBA|F2 E2 D2 C2 B,2 A,2|G,2 A4 c2 B2 A2|
A,EAe:|
